flaticon/arrows/down-arrow.svg

<svg xmlns="http://www.w3.org/2000/svg" width="32" height="32" viewBox="0 0 24 24">
    <path d="M 21.875 0 L 2.125 0 C 0.953125 0 0 0.953125 0 2.125 L 0 21.875 C 0 23.046875 0.953125 24 2.125 24 L 21.875 24 C 23.046875 24 24 23.046875 24 21.875 L 24 2.125 C 24 0.953125 23.046875 0 21.875 0 Z M 23.109375 21.875 C 23.109375 22.554688 22.554688 23.109375 21.875 23.109375 L 2.125 23.109375 C 1.445312 23.109375 0.890625 22.554688 0.890625 21.875 L 0.890625 2.125 C 0.890625 1.445312 1.445312 0.890625 2.125 0.890625 L 21.875 0.890625 C 22.554688 0.890625 23.109375 1.445312 23.109375 2.125 Z M 23.109375 21.875"/>
    <path d="M 17.410156 7.109375 L 6.589844 7.109375 C 6.273438 7.109375 5.988281 7.273438 5.832031 7.550781 C 5.671875 7.824219 5.671875 8.152344 5.832031 8.425781 L 11.242188 17.796875 C 11.398438 18.070312 11.683594 18.234375 12 18.234375 C 12.316406 18.234375 12.601562 18.070312 12.757812 17.796875 L 18.167969 8.425781 C 18.328125 8.152344 18.328125 7.824219 18.167969 7.550781 C 18.011719 7.273438 17.726562 7.109375 17.410156 7.109375 Z M 12.011719 17.351562 L 11.625 17.574219 L 12.011719 17.351562 L 6.589844 8 L 17.398438 7.980469 Z M 12.011719 17.351562"/>
</svg>

<svg xmlns="http://www.w3.org/2000/svg" width="32" height="32" viewBox="0 0 24 24">
    <path d="M21.875 0H2.125A2.127 2.127 0 0 0 0 2.125v19.75C0 23.047.953 24 2.125 24h19.75A2.127 2.127 0 0 0 24 21.875V2.125A2.127 2.127 0 0 0 21.875 0zm1.234 21.875c0 .68-.554 1.234-1.234 1.234H2.125c-.68 0-1.234-.554-1.234-1.234V2.125c0-.68.554-1.234 1.234-1.234h19.75c.68 0 1.234.554 1.234 1.234zm0 0"/>
    <path d="M17.41 7.11H6.59a.86.86 0 0 0-.758.44.857.857 0 0 0 0 .876l5.41 9.37a.865.865 0 0 0 .758.438.865.865 0 0 0 .758-.437l5.41-9.371a.857.857 0 0 0 0-.875.86.86 0 0 0-.758-.442zm-5.398 10.242l-.387.222.387-.222L6.59 8l10.808-.02zm0 0"/>
</svg>
